X: 4
T: The Edinburgh Rock
R: reel
M: 4/4
L: 1/8
K: Emaj
|: AF F2 EFBF | AF F2 cecB | AF F2 EFAF | cB B2 BAAF|
AF F2 EFBF | AF F2 cecB | AFAB cBAB | ceae f3 e:|
|: affe cBAF | ef f2 afbf | affe cBAF | EF F2 AFce|
affe c3B | AFAB cBAB | ce e2 cBAB | ceae f3 e :|


Tune 5450	Setting 27929

